material/.icons/material/playlist-music.svg

<svg xmlns="http://www.w3.org/2000/svg" viewBox="0 0 24 24"><path d="M15 6H3v2h12V6m0 4H3v2h12v-2M3 16h8v-2H3v2M17 6v8.18c-.31-.11-.65-.18-1-.18a3 3 0 00-3 3 3 3 0 003 3 3 3 0 003-3V8h3V6h-5z"/></svg>

<?xml version="1.0" encoding="UTF-8"?><!DOCTYPE svg PUBLIC "-//W3C//DTD SVG 1.1//EN" "http://www.w3.org/Graphics/SVG/1.1/DTD/svg11.dtd"><svg xmlns="http://www.w3.org/2000/svg" xmlns:xlink="http://www.w3.org/1999/xlink" version="1.1" id="mdi-playlist-music" width="24" height="24" viewBox="0 0 24 24"><path d="M15,6H3V8H15V6M15,10H3V12H15V10M3,16H11V14H3V16M17,6V14.18C16.69,14.07 16.35,14 16,14A3,3 0 0,0 13,17A3,3 0 0,0 16,20A3,3 0 0,0 19,17V8H22V6H17Z" /></svg>
